assets/images/common/icon-bookmark.svg

<svg width="24" height="24" viewBox="0 0 24 24" fill="none" xmlns="http://www.w3.org/2000/svg">
<path fill-rule="evenodd" clip-rule="evenodd" d="M20.4998 5.51076L20.3866 5.381C18.8644 3.63731 16.3468 3.53755 14.712 5.12379C14.7119 5.12388 14.7121 5.12371 14.712 5.12379L11.9989 7.75777L9.28803 5.12594C9.28768 5.1256 9.28733 5.12526 9.28698 5.12492C7.64578 3.53756 5.12955 3.63931 3.60909 5.381C2.03468 7.1845 2.15484 10.0205 3.8523 11.6664L12 19.568L20.1476 11.6665C21.8049 10.0596 21.9588 7.31808 20.4998 5.51076ZM21.8976 4.06571C24.1669 6.6652 24.0065 10.7106 21.5399 13.1022L12.6318 21.7413C12.2742 22.0862 11.7258 22.0862 11.3682 21.7413L2.46006 13.1022C-0.00647467 10.7106 -0.166864 6.6652 2.10243 4.06571C4.37173 1.46623 8.21025 1.29947 10.679 3.68881L11.9989 4.97028L13.3189 3.68881C15.7832 1.29719 19.6239 1.46623 21.8932 4.06571H21.8976Z" fill="#A4A4A4"/>
</svg>

<svg xmlns="http://www.w3.org/2000/svg" width="24" height="24" fill="none" viewBox="0 0 24 24"><path fill="#A4A4A4" fill-rule="evenodd" d="M20.5 5.51l-.113-.129c-1.523-1.744-4.04-1.843-5.675-.257l-2.713 2.634-2.711-2.632-.001-.001C7.646 3.538 5.13 3.639 3.609 5.38c-1.574 1.803-1.454 4.64.243 6.285L12 19.568l8.148-7.902c1.657-1.606 1.81-4.348.352-6.155zm1.398-1.444c2.269 2.6 2.108 6.645-.358 9.036l-8.908 8.64a.9.9 0 0 1-1.264 0l-8.908-8.64c-2.466-2.391-2.627-6.437-.358-9.036 2.27-2.6 6.108-2.767 8.577-.377l1.32 1.281 1.32-1.281c2.464-2.392 6.305-2.223 8.574.377h.005z" clip-rule="evenodd"/></svg>
